X:79
T:Smash the Windows
T:Roaring Jelly
R:single jig
Z:id:hn-slide-79
M:6/8
L:1/8
K:D
DED F2A | d2f ecA | G2B F2A | E2F GFE |
DED F2A | d2f ecA | Bgf edc |1 d3 dAF :|2 d3 dfg ||
a2f f2d | Adf agf | g2e e2c | Ace gfg |
a2f f2d | f2g agf | egf edc | d3 dfg |
agf fed | Adf afd | gfe ecA | Ace gfe |
fed gfe | agf bag | fed edc | d3 d3 ||
P:variations
|: DED F2A | d2f ecA | G2B F2A | E2F GFE |
DED F2A | d2f ecA | Bgf edc |1 ded dAF :|2 ded d2a ||
a2f d2e | f2g agf | g2e c2d | e2f gfe |
a2f d2e | f2g agf | gfe cde | ded dfg |
a2f d2e | f2g agf | g2e c2d | e2f gfe |
fed gfe | agf bag | fed cde | ded dAF ||
<end>
<start>
